X:162
%%etbk:tnset id:54,pos:4,rep:3x,ant:
%%etbk:tnset id:260,pos:2,rep:3x-Stop,ant:
%%etbk:wsite http://www.thesession.org/tunes/display/2536
%%etbk:pldat 2016-06-20T18:38,2016-06-16T19:01,2016-05-05T15:37,2016-05-03T15:23,2016-03-11T16:56,2016-03-09T17:17,2016-03-08T15:50,2016-03-05T14:26,2016-02-26T17:28,2016-02-23T16:46,2016-02-07T15:03,2015-11-03T16:20,2015-10-28T16:15,2015-10-26T18:22,2015-10-22T19:17,2015-10-15T19:28,2015-10-03T16:20,2015-09-08T19:24,2015-06-23T18:16,2015-06-21T15:20,2015-06-16T16:59,2015-05-27T18:56,2015-04-22T15:46,2015-03-12T18:43,2015-03-09T18:22,2015-03-03T18:18,2015-02-22T16:22,2015-02-17T17:40,2015-02-14T13:12,2015-02-11T16:19,2015-02-10T17:49,2015-01-28T17:07,2014-11-05T19:00,2014-11-04T17:06,2014-11-02T15:18,2014-10-29T16:11,2014-10-24T18:20,2014-10-12T14:09,2014-08-21T18:54,2014-08-18T18:47,2014-06-25T15:38,2014-06-22T16:30,2014-06-09T15:01,2014-03-05T19:34,2014-03-02T15:57,2014-02-25T19:11,2014-02-12T18:08,2013-10-30T15:39,2013-10-28T18:21,2013-10-24T18:52,2013-10-18T16:05,2013-10-14T18:46,2013-10-09T16:20,2013-09-27T16:54,2013-08-29T16:39
T: Jim Donoghue's
Z: Piano Box Version by Martin Fleischmann
H: Created 2013-02-19 /  Last Modified 2013-02-19
M: 4/4
L: 1/8
R: reel
K: Dmaj
|: "D"!4!A!3!A!4!A!2!F !5!B!2!F!4!AF | BF!4!A!3!F !2!E!1!D!2!B,!1!D | !4![A3D]F !5!BF!4!A!3!F | "A"!2!EDEF "D"!1!D4 |
"D"!4!A3!2!F !5!BF!4!A!2!F | !1!D2!2!F{A}!2!F !1!A!2!B!4!d!2!e | !3!f2{g}fe !1!d!3!f!1!e!3!c | "A"!4!d!2!B!1!A!2!F "D"!1!D4 :|
 |: "D"!1!d!3!ffe !3!f{g}ffe | !1!dfe!1!d !2!B!1!A!2!F!1!A | "A"!2!B!5!e!2!ed !2!e{g}ede | "D"!3!f2df !2!e!1!d!2!B!1!d |
"D"!1!d!3!ffe !3!f3e | !1!dfe!1!d !2!B!1!A!2!F!1!A | !1!A!2!B!3!d!4!e !5!f!3!d!1!A!3!F | "A"!2!EDEF "D"!1!D4 :|


